X: 20950
T: Joys Of Quebec
R: reel
M: 4/4
K: Amajor
ee|:"A"e2 cc c2 ee|e2 cc c2 ee|f2 e2 d2 c2|"E7"d2 BB B2 dd|d2 BB B2 dd|
"E7"d2 BB B2 A/B/c|1 d2 e2 gfeg|"A"fe^df e2 ee:|2 d2 e2 fefg|"A"a6 A/B/c||
"A"e4 "D"f4|"A"e6 AB|c4 "D"d4|"A"c6 Ac|B2 A2 G2 A2|
"E7"B6 A/B/c|1 d2 e2 gfeg|"A"fe^df e2 A/B/c:|2 d2 e2 fefg|"A"afec A2 ee||

